X:11
T:Gavotte t3.25 Bal Shep16  Em
C:Tamm Kreiz
C:Shephard p16
A:Bretagne
O:Bretagne
G:Lark16
L:1/8
K:Dmaj
Q:C2=72
M:none
|:"Em"EBG |"D"HA2 GFE "Bm"HD2| DAF "C"HG2 F"D"ED "Em"HE2:|
Q:1/4=160
M:2/4
|:B|"Em"Bcdc BGEB/2B/2|Bcdc BAB3/2A/2| Bcdc BGEF| GA (3BAG "D"FG "Em"HE2|

